static/assets/images/icons/to-left.svg

<svg width="256" height="256" viewBox="0 0 256 256" fill="none" xmlns="http://www.w3.org/2000/svg">
<path fill-rule="evenodd" clip-rule="evenodd" d="M213.75 115.461C224.536 118.468 225.258 135.369 214.762 139.27C213.136 139.875 211.31 140.237 209.268 140.237H73.7685L105.291 176.908C107.629 179.253 108.942 182.432 108.942 185.748C108.942 189.064 107.629 192.244 105.291 194.588C102.953 196.933 99.7826 198.25 96.4765 198.25C93.1705 198.25 89.9999 196.933 87.6622 194.588L37.1743 136.234C32.5351 130.872 32.619 122.893 37.3697 117.629L87.6622 61.9117C89.9999 59.5672 93.1705 58.25 96.4765 58.25C99.7826 58.25 102.953 59.5672 105.291 61.9117C107.629 64.2562 108.942 67.4361 108.942 70.7518C108.942 74.0675 107.629 77.2474 105.291 79.5919L73.7685 114.859H209.268C210.89 114.859 212.382 115.079 213.75 115.461Z" fill="black"/>
</svg>

<svg xmlns="http://www.w3.org/2000/svg" viewBox="0 0 256 256"><path fill-rule="evenodd" d="M213.75 115.461c10.786 3.007 11.508 19.908 1.012 23.809a15.6 15.6 0 0 1-5.494.967h-135.5l31.523 36.671a12.52 12.52 0 0 1 3.651 8.84c0 3.316-1.313 6.496-3.651 8.84a12.45 12.45 0 0 1-8.814 3.662 12.45 12.45 0 0 1-8.815-3.662l-50.488-58.354a14.05 14.05 0 0 1 .196-18.605l50.292-55.717a12.45 12.45 0 0 1 8.814-3.662c3.307 0 6.477 1.317 8.815 3.662a12.52 12.52 0 0 1 3.651 8.84 12.52 12.52 0 0 1-3.651 8.84l-31.522 35.267h135.499c1.622 0 3.114.22 4.482.602" clip-rule="evenodd"/></svg>
